local/share/icons/dracula-icons-main/16/devices/tablet.svg

<?xml version="1.0" encoding="UTF-8"?>
<svg xmlns="http://www.w3.org/2000/svg" xmlns:xlink="http://www.w3.org/1999/xlink" width="16" height="16" viewBox="0 0 16 16">
<path fill-rule="nonzero" fill="rgb(44.705882%, 44.705882%, 44.705882%)" fill-opacity="1" d="M 1 2 C 0.445312 2 0 2.445312 0 3 L 0 13 C 0 13.554688 0.445312 14 1 14 L 15 14 C 15.554688 14 16 13.554688 16 13 L 16 3 C 16 2.445312 15.554688 2 15 2 Z M 3 4 L 13 4 L 13 12 L 3 12 Z M 1 7 L 2 7 L 2 9 L 1 9 Z M 14 7 L 15 7 L 15 9 L 14 9 Z M 14 7 "/>
</svg>

<svg xmlns="http://www.w3.org/2000/svg" width="16" height="16" version="1.1" viewBox="0 0 16 16">
 <defs>
  <style id="current-color-scheme" type="text/css">
   .ColorScheme-Text { color:#727272; } .ColorScheme-Highlight { color:#5294e2; }
  </style>
 </defs>
 <path style="fill:currentColor;" class="ColorScheme-Text"  d="m1 2c-0.554 0-1 0.446-1 1v10c0 0.554 0.446 1 1 1h14c0.554 0 1-0.446 1-1v-10c0-0.554-0.446-1-1-1h-14zm2 2h10v8h-10v-8zm-2 3h1v2h-1v-2zm13 0h1v2h-1v-2z"/>
</svg>
